X: 6656
T: Ceilidh At The Caseys
R: jig
M: 6/8
K: Amajor
|:B|"A"AFE A2B|"A"cec "D"dcB|"A"AFE A2c|"Bm"Bce "E"fec|
"A"AFE A2B|"A"cec "D"dcB|"A"efa "F#"fec|1 "Bm"Bce "E"dc:|2 "E"BAA "A"A2||
|:B|"A"Ace "D"fea|"Bm"fga "C#7(E)"b2g|"Fm"aba aec|"Bm"Bce "E"dcB|
[1 "A"Ace "D"fea|"A"fec e2c|"A"aga "B"bf^d|"E"efe dc:|
[2 "A"AFE A2B|"A"cec "D"dcB|"A"efa "Bm"fec|"E"BAA "A"A2||

